X:1
T: The Merry Lads of Ayer
C:
R:Reel
Q: 232
K:D
M:4/4
L:1/8
g|fe de dA Ag|fe df g1/2a1/2b ag|fe de dA Ad|Bd af fe eg|
fe de dA Ag|fe df g1/2a1/2b ag|fe de dA Ad|Bd AF FE Ef|
|:df ab af ef|df ab a2 fe|df ab af ef|gb af fe ef|
df ab af ef|df ab a2 fe|df ad' af df|gb fa ef ga:|
fe de dA Ag|fe df g1/2a1/2b ag|fe de dA Ad|Bd af fe eg|
fe de dA Ag|fe df g1/2a1/2b ag|fe de dA Ad|Bd AF FE E||
